X: 1
T: Bill and Nancy's Kitchen
C: David A Kaynor 2000
%D:2000
B: David A. Kaynor "Living Music and Dance" 2021
Z: 2022 John Chambers <jc:trillian.mit.edu>
M: 4/4
L: 1/8
K: Go
DC |\
"G"B,>D G2 G2 D>B, | "Am"C>E A2 A3 G | "D"F3 E D>F AF |\
[1,3 "G"F>A BG "D"D2 :|[2,4 "G"G2 "D"G2 "G"G2 :|
|: Bd |:\
"G"g2 f>g "D"a3 f | "G"d2 d>B "C"c3 c | "G"B>d BG "D7"A>c AF |\
[1,3 "G"G>A Bc "D"d2 ef :|[2,4 "G"G2 "D"G2 "G"G2 :|
